src/images/app-icons/light-theme/M&AAccelerator-ProgramWorkCenter.svg

<svg xmlns="http://www.w3.org/2000/svg" xmlns:xlink="http://www.w3.org/1999/xlink" viewBox="0 0 32 32"><defs><linearGradient id="M&amp;AAccelerator-ProgramWorkCenter_svg__a" x1="8" y1="26.5" x2="17" y2="26.5" gradientUnits="userSpaceOnUse"><stop offset="0" stop-opacity="0"/><stop offset=".9"/></linearGradient><linearGradient id="M&amp;AAccelerator-ProgramWorkCenter_svg__b" x1="352" y1="7441.5" x2="361" y2="7441.5" gradientTransform="translate(-339 -7436)" xlink:href="#M&amp;AAccelerator-ProgramWorkCenter_svg__a"/><linearGradient id="M&amp;AAccelerator-ProgramWorkCenter_svg__d" y1="32" x2="32" gradientUnits="userSpaceOnUse"><stop offset=".1" stop-color="#08bdba"/><stop offset=".9" stop-color="#0f62fe"/></linearGradient><mask id="M&amp;AAccelerator-ProgramWorkCenter_svg__c" x="0" y="0" width="32" height="32" maskUnits="userSpaceOnUse"><path d="M16 28h-5a7.008 7.008 0 01-7-7v-1h2v1a5.006 5.006 0 005 5h5z" fill="#fff"/><path fill="url(#M&amp;AAccelerator-ProgramWorkCenter_svg__a)" d="M8 24h9v5H8z"/><path d="M28 12h-2v-1a5.006 5.006 0 00-5-5h-7V4h7a7.008 7.008 0 017 7z" fill="#fff"/><path transform="rotate(180 17.5 5.5)" fill="url(#M&amp;AAccelerator-ProgramWorkCenter_svg__b)" d="M13 3h9v5h-9z"/></mask></defs><g data-name="Layer 2"><g data-name="Light theme icons"><g mask="url(#M&amp;AAccelerator-ProgramWorkCenter_svg__c)"><path fill="url(#M&amp;AAccelerator-ProgramWorkCenter_svg__d)" d="M0 0h32v32H0z"/></g><path d="M2 14v2h2v-2a1 1 0 011-1h6a1 1 0 011 1v2h2v-2a3 3 0 00-3-3H5a3 3 0 00-3 3zM8 2a4 4 0 104 4 4 4 0 00-4-4zm0 6a2 2 0 112-2 2 2 0 01-2 2zM19.001 18H26v2h-6.999zM19.001 23h10.997v2H19.001zM23 28h7v2h-7z" fill="#001d6c"/></g></g></svg>

<svg xmlns="http://www.w3.org/2000/svg" xmlns:xlink="http://www.w3.org/1999/xlink" viewBox="0 0 32 32"><defs><style>.cls-1{fill:#fff;}.cls-2{fill:url(#linear-gradient);}.cls-3{fill:url(#linear-gradient-2);}.cls-4{mask:url(#mask);}.cls-5{fill:url(#linear-gradient-3);}.cls-6{fill:#001d6c;}</style><linearGradient id="linear-gradient" x1="8" y1="26.5" x2="17" y2="26.5" gradientUnits="userSpaceOnUse"><stop offset="0" stop-opacity="0"/><stop offset="0.9"/></linearGradient><linearGradient id="linear-gradient-2" x1="352" y1="7441.5" x2="361" y2="7441.5" gradientTransform="translate(-339 -7436)" xlink:href="#linear-gradient"/><mask id="mask" x="0" y="0" width="32" height="32" maskUnits="userSpaceOnUse"><path class="cls-1" d="M16,28H11a7.008,7.008,0,0,1-7-7V20H6v1a5.006,5.006,0,0,0,5,5h5Z"/><rect class="cls-2" x="8" y="24" width="9" height="5"/><path class="cls-1" d="M28,12H26V11a5.006,5.006,0,0,0-5-5H14V4h7a7.008,7.008,0,0,1,7,7Z"/><rect class="cls-3" x="13" y="3" width="9" height="5" transform="translate(35 11) rotate(180)"/></mask><linearGradient id="linear-gradient-3" y1="32" x2="32" gradientUnits="userSpaceOnUse"><stop offset="0.1" stop-color="#08bdba"/><stop offset="0.9" stop-color="#0f62fe"/></linearGradient></defs><g id="Layer_2" data-name="Layer 2"><g id="Light_theme_icons" data-name="Light theme icons"><g class="cls-4"><rect class="cls-5" width="32" height="32"/></g><path class="cls-6" d="M2,14v2H4V14a1,1,0,0,1,1-1h6a1,1,0,0,1,1,1v2h2V14a3,3,0,0,0-3-3H5A3,3,0,0,0,2,14Z"/><path class="cls-6" d="M8,2a4,4,0,1,0,4,4A4,4,0,0,0,8,2ZM8,8a2,2,0,1,1,2-2A2,2,0,0,1,8,8Z"/><rect class="cls-6" x="19.001" y="18" width="6.999" height="2"/><rect class="cls-6" x="19.001" y="23" width="10.997" height="2"/><rect class="cls-6" x="23" y="28" width="7" height="2"/></g></g></svg>
